source/img/icon/icon-advantages-4.svg

<svg width="86" height="84" viewBox="0 0 86 84" fill="none" xmlns="http://www.w3.org/2000/svg">
<path opacity="0.8" d="M21.1718 1.40002H55.3668C58.5142 1.40002 61.066 3.90745 61.066 7.00002V12.6H15.4727V7.00002C15.4727 3.90745 18.0245 1.40002 21.1718 1.40002Z" fill="#27ACE2"/>
<path opacity="0.8" d="M15.4727 68.6H61.066V77C61.066 80.0926 58.5142 82.6 55.3668 82.6H21.1718C18.0245 82.6 15.4727 80.0926 15.4727 77V68.6Z" fill="#27ACE2"/>
<path d="M59.6414 67.2H22.5968V70H59.6414V77C59.6414 79.3194 57.7276 81.2 55.3671 81.2H21.1721C18.8115 81.2 16.8977 79.3194 16.8977 77V14H53.9423V11.2H16.8977V7C16.8977 4.68057 18.8115 2.8 21.1721 2.8H55.3671C57.7276 2.8 59.6414 4.68057 59.6414 7V21H62.491V7C62.4862 3.13564 59.2999 0.00478517 55.3671 0H21.1721C17.2393 0.00478517 14.053 3.13564 14.0481 7V77C14.053 80.8644 17.2393 83.9952 21.1721 84H55.3671C59.2999 83.9952 62.4862 80.8644 62.491 77V61.6H59.6414V67.2Z" fill="#0060AA"/>
<path d="M36.8447 74.2H39.6943V77H36.8447V74.2Z" fill="#0060AA"/>
<path d="M26.8713 5.59998H29.7209V8.39998H26.8713V5.59998Z" fill="#0060AA"/>
<path d="M32.5703 5.59998H35.4199V8.39998H32.5703V5.59998Z" fill="#0060AA"/>
<path d="M19.7473 18.2V23.8H22.5969V19.6H26.8713V16.8H21.1721C20.3853 16.8 19.7473 17.4268 19.7473 18.2Z" fill="#0060AA"/>
<g clip-path="url(#clip0)">
<path opacity="0.8" d="M59.1569 42.0009C59.1569 47.3165 54.7716 51.6255 49.3619 51.6255C43.9522 51.6255 39.5669 47.3165 39.5669 42.0009C39.5669 36.6854 43.9522 32.3763 49.3619 32.3763C54.7716 32.3763 59.1569 36.6854 59.1569 42.0009Z" fill="#27ACE2"/>
<path d="M70.481 35.4958C69.9341 33.8903 68.6075 32.8782 67.4357 31.9849C66.8088 31.5059 66.2174 31.0548 65.87 30.6058C65.5209 30.1559 65.2448 29.4813 64.9531 28.7666C64.4152 27.4516 63.807 25.9614 62.393 24.9912C61.003 24.0393 59.3351 23.9517 57.8633 23.8757C57.0368 23.8325 56.2559 23.7915 55.6568 23.6078C55.1089 23.4425 54.4776 23.0541 53.8089 22.6435C52.5541 21.8745 51.1306 21.0021 49.3618 21.0021C47.59 21.0021 46.1661 21.8771 44.9104 22.6487C44.2452 23.0584 43.6169 23.4442 43.0725 23.6095C42.4734 23.7932 41.6882 23.8355 40.8573 23.8791C39.389 23.9577 37.7228 24.0461 36.3302 24.9929C34.918 25.9622 34.3089 27.4533 33.7719 28.7674C33.4797 29.4813 33.2027 30.1568 32.8493 30.6118C32.5066 31.0565 31.9153 31.5077 31.2883 31.9874C30.1218 32.8791 28.7996 33.8894 28.2474 35.4864C27.7052 37.0488 28.1361 38.5907 28.5165 39.9514C28.7265 40.7054 28.9261 41.4176 28.9261 42.0012C28.9261 42.5848 28.7265 43.297 28.5157 44.0515C28.1352 45.4118 27.7043 46.9528 28.2457 48.5143C28.7987 50.113 30.1209 51.1238 31.2875 52.0154C31.9144 52.4948 32.5058 52.9464 32.8536 53.3966C33.2019 53.8457 33.4771 54.5177 33.7693 55.2307C34.3089 56.5483 34.9206 58.0419 36.3363 59.0087C37.7228 59.9636 39.3916 60.0499 40.8642 60.1272C41.6934 60.1699 42.4751 60.2109 43.0673 60.3921C43.6095 60.5591 44.2365 60.944 44.9 61.3521C46.1583 62.1245 47.5866 63.0003 49.3618 63.0003C51.1349 63.0003 52.5615 62.1262 53.8198 61.3555C54.4867 60.9458 55.1167 60.5608 55.6637 60.3921C56.2559 60.2101 57.0368 60.1691 57.8633 60.1259C59.3351 60.049 61.003 59.9614 62.3947 59.0096C63.807 58.0402 64.4161 56.5492 64.9531 55.235C65.2448 54.5211 65.5218 53.8457 65.8753 53.3907C66.2174 52.9472 66.8088 52.4965 67.4357 52.018C68.6066 51.1247 69.9341 50.1121 70.4771 48.5164C71.0197 46.9536 70.5884 45.4118 70.2084 44.0515C69.9975 43.297 69.798 42.5848 69.798 42.0012C69.798 41.4176 69.9975 40.7054 70.2084 39.9514C70.5884 38.5915 71.0197 37.0501 70.481 35.4958ZM66.774 44.9786C67.0305 45.895 67.2957 46.8426 67.1036 47.3954C66.8988 47.9965 66.0605 48.6352 65.2513 49.253C64.4696 49.8498 63.6617 50.4667 63.0413 51.2725C62.3974 52.0992 61.9991 53.0732 61.6495 53.9307C61.2621 54.8753 60.8969 55.7686 60.3573 56.1399C59.8008 56.5214 58.7686 56.5748 57.6751 56.6325C56.6655 56.685 55.6211 56.7393 54.6015 57.0516C53.6184 57.3541 52.7645 57.8783 51.9362 58.385C50.9997 58.9587 50.1153 59.5004 49.3618 59.5004C48.607 59.5004 47.7227 58.9579 46.7857 58.3832C45.9622 57.8774 45.1109 57.3541 44.1295 57.0516C43.1082 56.7401 42.0638 56.685 41.0529 56.6325C39.9616 56.5756 38.9303 56.5214 38.3746 56.1399C37.8281 55.7652 37.462 54.871 37.0737 53.9243C36.7059 53.0267 36.3259 52.0983 35.688 51.2793C35.0619 50.4676 34.2554 49.8498 33.4745 49.2538C32.6649 48.6352 31.8271 47.9956 31.617 47.3877C31.4283 46.8443 31.6936 45.8967 31.9501 44.9807C32.2018 44.0801 32.4879 43.059 32.4879 42.0029C32.4879 40.9468 32.2027 39.9257 31.9501 39.0256C31.6936 38.1096 31.4283 37.162 31.6179 36.6169C31.8271 36.0115 32.6649 35.3706 33.4745 34.752C34.2554 34.1556 35.0619 33.5378 35.6828 32.7321C36.3267 31.905 36.7246 30.9313 37.0746 30.0739C37.462 29.1289 37.8268 28.2355 38.3611 27.8681C38.9194 27.4883 39.9533 27.434 41.0486 27.3755C42.0612 27.3213 43.1073 27.2661 44.1269 26.9547C45.1109 26.6552 45.9683 26.1284 46.7974 25.6192C47.7313 25.0429 48.6122 24.502 49.3618 24.502C50.111 24.502 50.9906 25.042 51.9228 25.6141C52.7563 26.125 53.6176 26.6535 54.6015 26.9513C55.6211 27.2636 56.6646 27.3187 57.6742 27.37C58.7677 27.4272 59.7999 27.4815 60.3547 27.8617C60.896 28.2347 61.2621 29.1271 61.6486 30.0722C61.9991 30.9296 62.3974 31.9033 63.0356 32.724C63.6617 33.5361 64.4696 34.153 65.2513 34.7486C66.0605 35.3664 66.8988 36.0059 67.107 36.616C67.2957 37.1594 67.0305 38.107 66.774 39.023C66.5218 39.924 66.2361 40.9451 66.2361 42.0012C66.2361 43.0573 66.5218 44.0784 66.774 44.9786Z" fill="#0060AA"/>
<path d="M57.3757 42.0008C57.3757 46.3432 53.7808 49.8755 49.3616 49.8755C44.9423 49.8755 41.3475 46.3432 41.3475 42.0008C41.3475 37.6585 44.9423 34.1262 49.3616 34.1262H51.1425V30.6263H49.3616C42.9788 30.6263 37.7856 35.7291 37.7856 42.0008C37.7856 48.2725 42.9788 53.3753 49.3616 53.3753C55.7443 53.3753 60.9375 48.2725 60.9375 42.0008V40.2509H57.3757V42.0008Z" fill="#0060AA"/>
<path d="M47.5809 37.7764L45.063 40.2509L49.3618 44.4754L59.0037 35.0012L56.4854 32.5267L49.3618 39.5264L47.5809 37.7764Z" fill="#0060AA"/>
</g>
<defs>
<clipPath id="clip0">
<rect width="42.7438" height="42" fill="white" transform="translate(27.9905 21)"/>
</clipPath>
</defs>
</svg>

<svg width="86" height="84" fill="none" xmlns="http://www.w3.org/2000/svg"><path opacity=".8" d="M21.172 1.4h34.195c3.147 0 5.699 2.507 5.699 5.6v5.6H15.473V7c0-3.093 2.551-5.6 5.699-5.6zm-5.699 67.2h45.593V77c0 3.093-2.552 5.6-5.7 5.6H21.173c-3.148 0-5.7-2.507-5.7-5.6v-8.4z" fill="#27ACE2"/><path d="M59.641 67.2H22.597V70H59.64v7c0 2.32-1.913 4.2-4.274 4.2H21.172c-2.36 0-4.274-1.88-4.274-4.2V14h37.044v-2.8H16.898V7c0-2.32 1.913-4.2 4.274-4.2h34.195c2.36 0 4.274 1.88 4.274 4.2v14h2.85V7C62.486 3.136 59.3.005 55.367 0H21.172c-3.933.005-7.119 3.136-7.124 7v70c.005 3.864 3.191 6.995 7.124 7h34.195c3.933-.005 7.12-3.136 7.124-7V61.6h-2.85v5.6z" fill="#0060AA"/><path d="M36.845 74.2h2.85V77h-2.85v-2.8zM26.871 5.6h2.85v2.8h-2.85V5.6zm5.699 0h2.85v2.8h-2.85V5.6zM19.747 18.2v5.6h2.85v-4.2h4.274v-2.8h-5.699c-.787 0-1.425.627-1.425 1.4z" fill="#0060AA"/><g clip-path="url(#clip0)"><path opacity=".8" d="M59.157 42c0 5.316-4.385 9.626-9.795 9.626s-9.795-4.31-9.795-9.625c0-5.316 4.385-9.625 9.795-9.625s9.795 4.31 9.795 9.625z" fill="#27ACE2"/><path d="M70.481 35.496c-.547-1.606-1.873-2.618-3.045-3.511-.627-.48-1.219-.93-1.566-1.38-.35-.45-.625-1.124-.917-1.838-.538-1.315-1.146-2.806-2.56-3.776-1.39-.952-3.058-1.04-4.53-1.115-.826-.044-1.607-.085-2.206-.268-.548-.166-1.18-.554-1.848-.965-1.255-.768-2.678-1.64-4.447-1.64-1.772 0-3.196.874-4.452 1.646-.665.41-1.293.795-1.837.96-.6.184-1.385.226-2.216.27-1.468.079-3.134.167-4.527 1.114-1.412.97-2.021 2.46-2.558 3.774-.292.714-.57 1.39-.923 1.845-.342.445-.934.896-1.56 1.375-1.167.892-2.49 1.902-3.042 3.5-.542 1.562-.11 3.104.27 4.464.21.754.41 1.467.41 2.05 0 .584-.2 1.296-.411 2.05-.38 1.36-.812 2.902-.27 4.463.553 1.599 1.875 2.61 3.042 3.501.626.48 1.218.931 1.566 1.382.348.449.623 1.12.915 1.834.54 1.317 1.152 2.81 2.567 3.778 1.387.955 3.056 1.04 4.528 1.118.83.043 1.611.084 2.203.265.542.167 1.17.552 1.833.96 1.258.773 2.687 1.648 4.462 1.648 1.773 0 3.2-.874 4.458-1.645.667-.41 1.297-.794 1.844-.963.592-.182 1.373-.223 2.2-.266 1.471-.077 3.139-.165 4.53-1.116 1.413-.97 2.022-2.46 2.56-3.775.29-.714.568-1.39.921-1.844.342-.444.934-.895 1.56-1.373 1.172-.893 2.5-1.906 3.042-3.502.543-1.562.111-3.104-.269-4.465-.21-.754-.41-1.466-.41-2.05 0-.583.2-1.296.41-2.05.38-1.36.812-2.9.273-4.455zm-3.707 9.483c.257.916.522 1.864.33 2.416-.205.601-1.043 1.24-1.853 1.858-.781.597-1.59 1.214-2.21 2.02-.644.826-1.042 1.8-1.391 2.658-.388.944-.753 1.838-1.293 2.209-.556.381-1.588.435-2.682.492-1.01.053-2.054.107-3.073.42-.984.302-1.837.826-2.666 1.333-.936.574-1.82 1.115-2.574 1.115-.755 0-1.64-.542-2.576-1.117-.824-.506-1.675-1.029-2.657-1.331-1.02-.312-2.065-.367-3.076-.42-1.091-.056-2.123-.11-2.678-.492-.547-.375-.913-1.269-1.301-2.216-.368-.897-.748-1.826-1.386-2.645-.626-.811-1.433-1.43-2.214-2.025-.81-.619-1.647-1.258-1.857-1.866-.189-.544.077-1.491.333-2.407.252-.9.538-1.922.538-2.978 0-1.056-.285-2.077-.538-2.977-.256-.916-.522-1.864-.332-2.41.21-.605 1.047-1.245 1.857-1.864.78-.596 1.587-1.214 2.208-2.02.644-.827 1.042-1.8 1.392-2.658.387-.945.752-1.839 1.286-2.206.558-.38 1.592-.434 2.688-.492 1.012-.055 2.058-.11 3.078-.421.984-.3 1.841-.827 2.67-1.336.934-.576 1.815-1.117 2.565-1.117.749 0 1.629.54 2.56 1.112.834.511 1.696 1.04 2.68 1.337 1.02.313 2.063.368 3.072.419 1.094.057 2.126.111 2.68.492.542.373.908 1.265 1.295 2.21.35.858.748 1.831 1.387 2.652.626.812 1.434 1.429 2.215 2.025.81.617 1.648 1.257 1.856 1.867.189.543-.076 1.491-.333 2.407-.252.901-.538 1.922-.538 2.978 0 1.056.286 2.077.538 2.978z" fill="#0060AA"/><path d="M57.376 42c0 4.343-3.595 7.876-8.014 7.876-4.42 0-8.015-3.533-8.015-7.875 0-4.343 3.595-7.875 8.015-7.875h1.78v-3.5h-1.78c-6.383 0-11.576 5.103-11.576 11.375s5.193 11.374 11.576 11.374c6.382 0 11.575-5.102 11.575-11.374v-1.75h-3.561V42z" fill="#0060AA"/><path d="M47.58 37.776l-2.517 2.475 4.299 4.224 9.642-9.474-2.519-2.474-7.123 7-1.781-1.75z" fill="#0060AA"/></g><defs><clipPath id="clip0"><path fill="#fff" transform="translate(27.99 21)" d="M0 0h42.744v42H0z"/></clipPath></defs></svg>
